HTML/img/RGB Mazes/frgbmazed.svg

<?xml version="1.0" encoding="UTF-8" standalone="no"?>
<!-- Created with Inkscape (http://www.inkscape.org/) -->

<svg
   xmlns:dc="http://purl.org/dc/elements/1.1/"
   xmlns:cc="http://creativecommons.org/ns#"
   xmlns:rdf="http://www.w3.org/1999/02/22-rdf-syntax-ns#"
   xmlns:svg="http://www.w3.org/2000/svg"
   xmlns="http://www.w3.org/2000/svg"
   xmlns:sodipodi="http://sodipodi.sourceforge.net/DTD/sodipodi-0.dtd"
   xmlns:inkscape="http://www.inkscape.org/namespaces/inkscape"
   width="76.276184mm"
   height="64.071426mm"
   viewBox="0 0 76.276184 64.071426"
   version="1.1"
   id="svg1044"
   inkscape:version="0.92.4 (5da689c313, 2019-01-14)"
   sodipodi:docname="frgbmazed.svg">
  <defs
     id="defs1038" />
  <sodipodi:namedview
     id="base"
     pagecolor="#ffffff"
     bordercolor="#666666"
     borderopacity="1.0"
     inkscape:pageopacity="0.0"
     inkscape:pageshadow="2"
     inkscape:zoom="0.98994949"
     inkscape:cx="109.86517"
     inkscape:cy="95.365568"
     inkscape:document-units="mm"
     inkscape:current-layer="g1159"
     showgrid="false"
     inkscape:snap-global="false"
     inkscape:window-width="1366"
     inkscape:window-height="705"
     inkscape:window-x="-8"
     inkscape:window-y="-8"
     inkscape:window-maximized="1" />
  <metadata
     id="metadata1041">
    <rdf:RDF>
      <cc:Work
         rdf:about="">
        <dc:format>image/svg+xml</dc:format>
        <dc:type
           rdf:resource="http://purl.org/dc/dcmitype/StillImage" />
        <dc:title />
      </cc:Work>
    </rdf:RDF>
  </metadata>
  <g
     inkscape:label="Layer 1"
     inkscape:groupmode="layer"
     id="layer1"
     transform="translate(-32.86667,-109.99404)">
    <g
       id="g1159"
       transform="matrix(0.86199341,0,0,0.86199341,-19.530683,64.953264)">
      <g
         id="g874">
        <path
           d="m 39.91429,114.81547 a 3.0238097,3.0238097 0 0 1 -3.016369,3.0238 3.0238097,3.0238097 0 0 1 -3.031214,-3.00892 3.0238097,3.0238097 0 0 1 3.001449,-3.03861 3.0238097,3.0238097 0 0 1 3.045987,2.99396"
           sodipodi:open="true"
           sodipodi:end="6.2733417"
           sodipodi:start="0"
           sodipodi:ry="3.0238097"
           sodipodi:rx="3.0238097"
           sodipodi:cy="114.81547"
           sodipodi:cx="36.89048"
           sodipodi:type="arc"
           id="path1620"
           style="fill:#ffffff;fill-opacity:1;stroke:#000000;stroke-width:2;stroke-miterlimit:4;stroke-dasharray:none;stroke-opacity:1"
           transform="matrix(1.1601017,0,0,1.1601017,22.657577,-75.352392)" />
        <rect
           ry="2.4691255e-06"
           y="53.308716"
           x="75.474976"
           height="73.229408"
           width="73.229408"
           id="rect1027"
           style="fill:#ffffff;fill-opacity:1;stroke:#000000;stroke-width:1.97694683;stroke-miterlimit:4;stroke-dasharray:none;stroke-opacity:1" />
        <path
           inkscape:connector-curvature="0"
           id="path1030"
           d="M 75.474974,74.231406 H 85.936315 V 95.154093 H 106.85901 V 84.69275 H 96.397665 V 74.231406 H 106.85901 V 63.770062 H 85.936315 V 53.308718"
           style="fill:none;stroke:#000000;stroke-width:1.97694683;stroke-linecap:butt;stroke-linejoin:miter;stroke-miterlimit:4;stroke-dasharray:none;stroke-opacity:1" />
        <path
           inkscape:connector-curvature="0"
           id="path1032"
           d="m 117.32035,53.308718 v 10.461344 h 10.46134 V 74.231406 H 117.32035 V 84.69275 h -10.46134"
           style="fill:none;stroke:#000000;stroke-width:1.97694683;stroke-linecap:butt;stroke-linejoin:miter;stroke-miterlimit:4;stroke-dasharray:none;stroke-opacity:1" />
        <path
           inkscape:connector-curvature="0"
           id="path1034"
           d="m 75.474974,105.61543 h 10.461341 v 10.46135 h 10.46135 V 105.61543 H 117.32035 V 95.154093 h -10.46134"
           style="fill:none;stroke:#000000;stroke-width:1.97694683;stroke-linecap:butt;stroke-linejoin:miter;stroke-miterlimit:4;stroke-dasharray:none;stroke-opacity:1" />
        <path
           inkscape:connector-curvature="0"
           id="path1036"
           d="m 117.32035,105.61543 v 20.92269"
           style="fill:none;stroke:#000000;stroke-width:1.97694683;stroke-linecap:butt;stroke-linejoin:miter;stroke-miterlimit:4;stroke-dasharray:none;stroke-opacity:1" />
        <path
           inkscape:connector-curvature="0"
           id="path1038"
           d="m 106.85901,116.07678 v 10.46134"
           style="fill:none;stroke:#000000;stroke-width:1.97694683;stroke-linecap:butt;stroke-linejoin:miter;stroke-miterlimit:4;stroke-dasharray:none;stroke-opacity:1" />
        <path
           inkscape:connector-curvature="0"
           id="path1040"
           d="M 148.70438,63.770062 H 138.24304 V 95.154093 H 127.78169 V 84.69275 h -10.46134"
           style="fill:none;stroke:#000000;stroke-width:1.97694683;stroke-linecap:butt;stroke-linejoin:miter;stroke-miterlimit:4;stroke-dasharray:none;stroke-opacity:1" />
        <path
           inkscape:connector-curvature="0"
           id="path1044"
           d="M 127.78169,95.154093 V 105.61543"
           style="fill:none;stroke:#000000;stroke-width:1.97694683;stroke-linecap:butt;stroke-linejoin:miter;stroke-miterlimit:4;stroke-dasharray:none;stroke-opacity:1" />
        <path
           inkscape:connector-curvature="0"
           id="path858"
           d="m 127.75993,104.86051 h 10.55948 v 21.72163"
           style="fill:none;stroke:#000000;stroke-width:1.70509505;stroke-linecap:butt;stroke-linejoin:miter;stroke-miterlimit:4;stroke-dasharray:none;stroke-opacity:1" />
        <path
           inkscape:connector-curvature="0"
           id="path860"
           d="m 127.75918,104.87706 0.31006,10.85209"
           style="fill:none;stroke:#000000;stroke-width:1.74015252;stroke-linecap:butt;stroke-linejoin:miter;stroke-opacity:1;stroke-miterlimit:4;stroke-dasharray:none" />
      </g>
    </g>
  </g>
</svg>

<svg xmlns="http://www.w3.org/2000/svg" width="288.288" height="242.16" viewBox="0 0 76.276 64.071"><g stroke="#000" transform="matrix(.862 0 0 .862 -52.397 -45.04)"><path d="M68.962 57.845a3.508 3.508 0 01-3.5 3.508 3.508 3.508 0 01-3.516-3.49 3.508 3.508 0 013.482-3.526 3.508 3.508 0 013.534 3.474" fill="#fff" stroke-width="2.3202"/><rect ry="0" y="53.309" x="75.475" height="73.229" width="73.229" fill="#fff" stroke-width="1.977"/><path d="M75.475 74.231h10.461v20.923h20.923V84.693H96.398V74.23h10.461v-10.46H85.936V53.308M117.32 53.309V63.77h10.462v10.461H117.32v10.462H106.86M75.475 105.615h10.461v10.462h10.462v-10.462h20.922v-10.46H106.86M117.32 105.615v20.923M106.859 116.077v10.461" fill="none" stroke-width="1.977"/><path d="M148.704 63.77h-10.461v31.384h-10.461V84.693H117.32M127.782 95.154v10.461" fill="none" stroke-width="1.977"/><path d="M127.76 104.86h10.56v21.722" fill="none" stroke-width="1.705"/><path d="M127.76 104.877l.31 10.852" fill="none" stroke-width="1.74"/></g></svg>
